!!!ONB: MCCC : IJB0152_01 : Extracted Monophonic Melody
!!!COM: Brahms, Johannes
!!!OPR: Violin Sonata No.1
!!!OMV: 1
!!!SCT: Op.78
!!!ODT: 1878///
**kern
*staff1
*clefG2
*k[f#]
*G:
*M6/4
4.dd
8dd
=2
4.dd
8cc
8b
8g
2.d
=3
4r
4.e
8e
2e
4g
=4
4r
4.g
8g
2g
4b
=5
4r
4dd
4f#
2.a[
=6
8a]
8A
8B
8c#
8d
8e
8f#
8g
8g#
8a
8b
8a
=7
4r
4dd
4f#
[2.b
=8
8b]
8A
8e
8g#
8a
8b
8cc#
8dd
8ee
8ff#
8gg
8gg#
=9
8bb
8aa
8gg
8ff#
8ee
8dd
8gg
8ff#
8ee
8dd
8cc
8b
=10
8ee
8dd
8cc
8b
8a
8g
8f#
8e
8d#
8d
8c#
8c
=11
4.B
8f#
[4b
8b]
8a#
4.g#
8e
=12
2d#
4c#
4.B
8f#
[4b
=13
8b]
8a
4.g
8e
2d
4c#
=14
4.B
8f#
[4b
8b]
8a
4.g
8e
=15
4.b
8a
[4g
8g]
8f#
4.e
8d
=16
4.c
8d
4c[
8c]
8a
4.cc
8e
=17
4.c
8d
4c[
8c]
8f#
4.ee
8cc
=18
2.aa[
2aa]
4cc
=19
2aa
4ff#[
4ff#]
2ee
=20
2.dd#
4r
4.dd
8dd
=21
4.dd
8cc
8b
8g
8d
8B
8d
8g
8b
8dd
=22
2.gg
2.ff
=23
4r
4.ee
8ee
2ee
4gg
=24
4r
4.gg
8gg
2gg
4bb
=25
4r
4ggg
4bb
2.ddd
=26
4r
4bbb
4ddd
2.fff#
=27
4r
4ddd
4ff#
4ddd
4ff#
4ddd[
=28
4ddd]
4.fff#
8eee
8ddd
8bb
8gg#
8ee
8dd
8b
=29
2.a
2.a
=30
2.a
2.a
=31
2.a
2.g
=32
2.g
2.f#
=33
2.f#
2.e
=34
2.d
2.d#
=35
2.e
2.g
=36
4f#
4.f#
8g
4a
4e
4f#
=37
4g
4.b
8dd
2dd
4a
=38
4b
4dd
4ee
4aa
4ff#
4dd
=39
4cc#
4.b
8ee
2ee
4a
=40
4ff#
4.ff#
8gg
4aa
4ee
4ff#
=41
4gg
4.bb
8ddd
2ddd
4aa
=42
4bb
4ddd
4eee
4aaa
4fff#
4ddd
=43
4ccc#
4.bb
8eee
2eee
4aa
=44
4cc#
4b
4ee
4.ff#
8ee
8cc#
8a
=45
2a
4g#[
4g#]
4a
4b
=46
4dd
4cc#
4ee
4.bb
8aa
8ff#
8dd
=47
2dd
4cc#[
4cc#]
4dd
4ee
=48
2ff
4ff#[
4ff#]
4.gg#
8aa
=49
2aa
4ee
2.r
=50
2ff
4ff#[
4ff#]
4gg
4gg#
=51
2aa
4ee
2ccc#
4bb
=52
2bb
4aa
2aa
4gg
=53
2.gg
2.ff#[
=54
2.ff#]
4r
4.ff#
8ff#
=55
4.ff#
8ee
8dd
8b
2.f#[
=56
2.f#]
4r
4.ee
8ee
=57
4.ee
8dd
8cc
8a
2.e[
=58
4e]
4.dd
8dd
2dd
4e
=59
4r
4.a
8a
2a
4c#
=60
4d
2f#[
2.f#]
=61
2f#
4g#
2g#
4e
=62
4f#
4.e
8f#
2.d#
=63
2.B
2.e
=64
2.c#
12g
12G
12g
12G
12g
12G
12g
12G
12g
=65
2.c#
16g
16G
8g
12G
12g
12G
12g
12G
12g
=66
2.c#
4B
4.A
8B
=67
2.A
4B
4.A
8B
=68
2.A
4A
4.G#
8A
=69
2.G#
2.B
=70
16e
8.ee
4.dd#
8ee
4dd
4.cc#
8dd
=71
4gg
4.aa
8gg
4ee
4cc#
4b
=72
8a
4g
4g
8g
8r
8g
4.g
8g
=73
8r
4g
4g
8g
8r
8g
4.g
8g
=74
4cc
4.b
8cc
4cc#
4.b#
8cc#
=75
4dd
4gg
4ff#
4ee
4dd
4b
=76
8r
4a
4b
8a
8r
4g
4a
8g
=77
8r
4f#
4a
8g
8r
4f#
4f
8e
=78
8r
8d
4f#
4g
4a
4b
4cc#
=79
4dd
4ee
4ff#
4gg
4aa
4bb
=80
4ccc
4ddd
4eee
4fff#
4ggg
4aaa
=81
1.bbb
=82
1.r
=83
1.r
=84
1.r
=85
1.r
=86
1.r
=87
1.r
=88
1.r
=89
1.r
=90
2.r
2r
8aa
8gg
=91
8ff#
8ee
8dd
8cc
8b
8b-
8a
8f#
8a
8cc
8ff#
8aa
=92
8eee
8ddd
8ccc
8bb
8aa
8gg
8ccc
8bb
8aa
8gg
8ff
8ee
=93
8aa
8gg
8ff
8ee
8dd
8cc
8b
8a
8g#
8g
8f#
8f
=94
2.r
2r
8aa
8gg
=95
8ff
8ee
8aa
8gg
8ff
8ee
8gg
8cc#
8ff
8ee
8gg
8cc#
=96
8cc
8b-
8cc#
8g
8cc
8b-
8cc#
8g
8cc
8b-
8cc#
8g
=97
8cc
8b-
8g#
8g
8cc
8b-
8g#
8g
8b-
8g#
8g
8f
=98
4g#
4g
4f
4e
4d#
8d
8c#
=99
4r
2c
4r
4.dd#
8dd#
=100
4.dd#
8cc#
8cc
8g#
2.d#
=101
4r
4.f
8f
2f
4g#
=102
4r
4.g#
8g#
2g#
4cc
=103
4c#
2cc
4r
2b-
=104
4b-[
2b-]
4r
2g#
=105
4r
4.bb-
8bb-
2bb-
4ccc#
=106
4r
4.ccc#
8ccc#
2ccc#
4fff
=107
4r
4ggg#
4ccc
2.ddd#[
=108
8ddd#]
8ccc#
8bb
8aa#
8gg#
8gg
8bb
8aa#
8gg#
8ff#
8ee
8dd#
=109
8gg#
8ff#
8ee
8dd#
8gg#
8ff#
8ee
8dd#
8gg
8ff#
8ee
8dd
=110
4cc#
[4b
4b]
12r
12B-
12B
12c#
12d
12e
16f#
16g#
8a#
=111
12b
12f#
12d
2B
12g
12d
12B
2G
=112
4r
4aa
4cc#
2.ee[
=113
8ee]
8dd
8cc
8b
8a
8g#
8cc
8b
8a
8g
8f
8e
=114
2.d
16r
16f#
8g
12a
12b-
12cc
12dd
12ee
12ff#
=115
12gg
12dd
12b-
12dd
12b-
12g
4d
12dd#
12b-
12g
12b-
12g
12d#
4B-
=116
2.d#
2.r
=117
8d#
8d
8g
8f
8d#
8d
8c
8B-
4A
4c
=118
4.d
8a
4dd[
8dd]
8cc
4.b-
8g
=119
4.f
8cc
4ff[
8ff]
8dd#
4.dd
8b-
=120
4.g
8dd
4gg[
8gg]
8ff
4.dd#
8cc
=121
4.a
8ee
4aa[
8aa]
8a
4.ff
8aa
=122
4.a
8ee
4aa[
8aa]
8a
4.ff
8aa
=123
8aa
8gg
4.ff#
8aa
4.gg
8ff#
4ee[
=124
8ee]
8dd#
4.aa
8gg
4.ff#
8ee
8gg
8ee
=125
4r
2ff#
8B
8d
2ff#
=126
8c#
8e
2bb-
8d
8f#
2bb
=127
2.ee[
8ee]
8ee
8aa
8dd#
8ddd
8dd
=128
4r
4d
4e
4f#
4g
4a
=129
4r
4b-
4cc
4dd
4dd#
4ff
=130
4r
4gg
4aa
4bb-
4bb-
4ccc
=131
4ddd
4gg
4aa
4bb-
4bb-
4ccc
=132
2ddd
4ddd[
4ddd]
2ddd
=133
2.gg
4g
4.f#
8g
=134
2.b-
4g
4.f#
8g
=135
2.d#
4cc
4.b
8cc
=136
2.dd#
4cc
4.b
8cc
=137
2.aa[
2aa]
4gg
=138
2.ff[
2ff]
4dd#
=139
2.r
4r
4.dd
8dd
=140
4.dd
8cc
8b-
8g
2.d
=141
16G
8.g
4.f#
8g
2.b-
=142
4gg
4.ff#
8gg
2.dd#
=143
4cc
4.b
8cc
2.dd#
=144
4ccc
4.bb
8ccc
4gg#
4.bb
8ccc
=145
2.gg#[
2gg#]
4gg
=146
2.ff[
2ff]
4dd#
=147
2.r
4r
4.dd
8dd
=148
4.dd
8cc
8b-
8g
2.d[
=149
2.d]
4r
4.dd
8dd
=150
4.dd
8cc
8b-
8g
8d
8B-
8d
8g
8b-
8dd
=151
4.gg
8ff#
8ee
8cc#
12g
6e
8g
8cc#
8ee
8gg
=152
4.ccc
8bb
8aa
8ff#
4.bb
8aa
8gg
8ee
=153
12aa
12aa
12gg]
8ff#
8dd
8gg
8ff#
8ee
8cc
8ff#
8ee
8dd
8b
=154
8ee
8dd
8cc
8a
8dd#
8dd
8cc
8a
8ee
8dd
8cc
8a
=155
4.dd
8cc
8b
8g
2.d
=156
4r
4.e
8e
2e
4g
=157
4r
4.g
8g
2g
4b
=158
4r
4dd
4f#
2.a[
=159
8a]
8A
8B
8c#
8d
8e
8f#
8g
8g#
8a
8b
8a
=160
4r
4dd
4f#
[2.b
=161
8b]
8A
12e
6g#
8a
8b
8cc#
8dd#
8ee
8ff#
8gg
8gg#
=162
8bb
8aa
8gg
8ff#
12ee
6dd
8gg
8ff#
24r
24ee
6dd
12cc
6b
=163
8ee
8dd
8cc
8b
8a
8g
8f#
8e
8d#
8d
8c#
8c
=164
4.B
8f#
[4b
8b]
8a#
4.g#
8e
=165
2d#
4c#
4.B
8f#
[4b
=166
4b]
4.g
8e
2d
4c#
=167
4.B
8f#
[4b
8b]
8a
4.g
8e
=168
4.b
8a
[4g
8g]
8f#
4.e
8d
=169
4.c
8d
4c[
8c]
8a
4.cc
8e
=170
4.c
8d
4c[
8c]
8f#
4.ee
8cc
=171
2.aa[
4aa]
2cc
=172
2.aa[
8aa]
8gg
8ff#
8ee
8dd
8cc
=173
4b
4.b
8cc
4dd
4a
4b
=174
4cc
4.ee
8gg
2gg
4dd
=175
4ee
4gg
4aa
4ddd
4bb
4gg
=176
4ff#
4.ee
8aa
2aa
4dd
=177
4r
4.b
8cc
4dd
4a
4b
=178
4cc
4.ee
8gg
2gg
4dd
=179
4ee
4gg
4aa
4ddd
4bb
4gg
=180
4ff#
4.ee
8aa
2aa
4dd
=181
4ff#
4ee
4aa
4.bb
8aa
8ff#
8dd
=182
2dd
4cc#[
4cc#]
4dd
4ee
=183
4gg
4ff#
4aa
4.eee
8ddd
8bb
8gg
=184
2gg
4ff#[
4ff#]
4gg
4aa
=185
2bb-
4bb[
4bb]
4.ccc#
8ddd
=186
2ddd
4aa
2.r
=187
2bb-
4bb[
4bb]
4ccc
4ccc#
=188
2ddd
4aa
2fff#
4eee
=189
2eee
4ddd
2ddd
4ccc
=190
2.ccc
2.bb
=191
2.bb[
4bb]
4.bb
8bb
=192
4.bb
8aa
8gg
8ee
[2.b
=193
2.b]
4r
4.aa
8aa
=194
4.aa
8gg
8ff
8dd
2.a[
=195
4a]
4.gg
8gg
2gg
4a
=196
4r
4.dd
8dd
2dd
4f#
=197
4g
[2b
2.b]
=198
2b
4cc#
2cc#
4a
=199
4b
4.a
8b
2.g#
=200
2.e
2.a
=201
2.f#
12cc
12c
12cc
12c
12cc
12c
12cc
12c
12cc
=202
2.f#
12cc
12c
12cc
12c
12cc
12c
12cc
12c
12cc
=203
2.f#
4e
4.d
8e
=204
2.d
4e
4.d
8e
=205
2.d
4d
4.c#
8d
=206
2.c#
2.e
=207
16a
8.aa
4.gg#
8aa
4gg
4.ff#
8gg
=208
4ccc
4.ddd
8ccc
4aa
4ff#
4ee
=209
8dd
8cc
4.d
8d
8r
8cc
4.d
8d
=210
8r
8a
4.a
8a
8r
4a
4d
8A
=211
4f
4.e
8f
4f#
4.e#
8f#
=212
4g
4ccc
4bb
4aa
4gg
4ee
=213
8r
4dd
4ee
8dd
8r
4cc
4dd
8cc
=214
8r
4b
4dd
8cc
8r
4b
4b-
8a
=215
8r
8g
4B
4c
4d
4e
4f#
=216
4g
4a
4b
4cc
4dd
4ee
=217
4ff
4gg
4aa
4bb
4ccc
4ddd
=218
1.eee
=219
1.ggg
=220
1.aa
=221
1.ddd#
=222
4r
4.ddd
8ddd
2.ddd[
=223
4.ddd]
8ccc
8bb
8gg
2.dd
=224
4r
4cc#
4dd
4ee
4ff#
4gg
=225
4r
4ff#
4gg
4aa
4bb
4ccc
=226
4r
4.ddd
8ddd
2.fff[
=227
4.fff]
8eee
8ddd
8bb
2.ff
=228
4r
4ee
4ff#
4gg#
4aa
4bb
=229
4r
4ccc
4ddd
4eee
4fff#
4ggg
=230
2.aaa
2.ccc[
=231
2.ccc]
2.aaa
=232
2.ccc[
4.ccc]
8aa
8cc
8aa
=233
2.ccc[
4.ccc]
8aa
8ff#
8cc
=234
4.b
8dd
4bb[
8bb]
8aa
4.gg
8ee
=235
2dd
4f#
4.g
8dd
4bb[
=236
8bb]
8aa
4.gg
8ee
4.ee
8dd
8dd
8f#
=237
4.g
8dd
4bb[
8bb]
8dd
4.ff#
8ddd
=238
4.g
8dd
4bb[
8bb]
8ee
4.ccc
8eee
=239
8ggg
8ddd
8bb
8gg
8ddd
8bb
8gg
8dd
8bb
8gg
8dd
8b
=240
12gg
12dd
12b
12g
12d
12B
12G
12B
12d
8g
8B
8b
8d
8dd
8b
=241
2.bb
2.ff#
=242
1.gg
==
*-
